X:1
T:Title
%%score { 1 | ( 2 3 ) }
L:1/8
Q:1/4=80
M:2/4
K:C
V:1 treble nm="Grand Piano"
V:2 bass 
V:3 bass 
V:1
 GE c>B | AF d2 | BG e>d | cE G2 | GE c>B | AD d2 | Bd Ec | BA G2 | [FA][Bd] [Ac][GB] | %9
w: Adam~Geibel * * *|||||||||
 [FA]/B/A/B/ A2 | [EG][Ac] [GB][FA] | [EG]/[FA]/[EG]/A/ [CEG]2 | EE cB | A[Ac] [^Ge]2 | [Ad]A Ge | %15
w: ||||||
 d>[Ec] [Ec]2 |] %16
w: |
V:2
 C,[E,G,C] .[E,G,C]2 | F,,[F,A,D] .[F,A,D]2 | G,,[F,G,B,] .[F,G,B,]2 | C,[E,G,C] .[G,C]2 | %4
 C,[E,G,C] .[E,G,C]2 | D,[^F,C] .[F,C]2 | .[G,B,D]2 .[C,E,A,]2 | [D,^F,CD][D,F,CD] [G,B,D]2 | %8
 [G,,G,][G,,G,] [G,,G,][G,,G,] | z/[K:treble] G/F/G/ [G,B,F]2 | [C,C][C,C] [C,C][C,C] | %11
 .[C,C]>F C,2 | E,E, CB, | A,[F,A,] [E,B,]2 | [F,F][F,CF] [G,CE][G,CG] | %15
 [G,B,F]>[K:bass][C,C] [C,C]2 |] %16
V:3
 x4 | x4 | x4 | x4 | x4 | x4 | x4 | x4 | x4 | [G,B,][K:treble][G,B,] z2 | x4 | z [C,C] z2 | x4 | %13
 x4 | x4 | x3/2[K:bass] x5/2 |] %16

